world_stage/static/flags/CUB/square.svg

<svg height="800" viewBox="0 0 800 800" width="800" xmlns="http://www.w3.org/2000/svg"><g transform="matrix(1.3190437 0 0 -1.9999981 0 799.99923)"><path d="m0 0h606.5v400h-606.5z" fill="#002a8f"/><g fill="#fff"><path d="m0 240h606.5v80h-606.5z"/><path d="m0 80h606.5v80h-606.5z"/></g></g><path d="m0 .0007945v799.9992155l385.16076-399.99961z" fill="#cf142b" stroke-width="1.62422"/><path d="m153.8744 304.90248-23.60373 72.67231h-76.396268l61.775578 44.90651-23.603733 72.61623 61.828153-44.90652 61.82816 44.90652-23.60374-72.61623 61.77558-44.90651h-76.39626z" fill="#fff" stroke-width="1.75245"/></svg>

<?xml version="1.0" encoding="UTF-8" standalone="no"?>
<svg
   height="800"
   viewBox="0 0 800 800"
   width="800"
   version="1.1"
   id="svg5"
   sodipodi:docname="rect copy.svg"
   inkscape:version="1.4 (e7c3feb1, 2024-10-09)"
   xmlns:inkscape="http://www.inkscape.org/namespaces/inkscape"
   xmlns:sodipodi="http://sodipodi.sourceforge.net/DTD/sodipodi-0.dtd"
   xmlns="http://www.w3.org/2000/svg"
   xmlns:svg="http://www.w3.org/2000/svg">
  <defs
     id="defs5" />
  <sodipodi:namedview
     id="namedview5"
     pagecolor="#ffffff"
     bordercolor="#000000"
     borderopacity="0.25"
     inkscape:showpageshadow="2"
     inkscape:pageopacity="0.0"
     inkscape:pagecheckerboard="0"
     inkscape:deskcolor="#d1d1d1"
     inkscape:current-layer="svg5" />
  <g
     transform="matrix(1.3190437,0,0,-1.9999981,0,799.99923)"
     id="g4">
    <path
       d="M 0,0 H 606.5 V 400 H 0 Z"
       fill="#002a8f"
       id="path1" />
    <g
       fill="#ffffff"
       id="g3">
      <path
         d="m 0,240 h 606.5 v 80 H 0 Z"
         id="path2" />
      <path
         d="m 0,80 h 606.5 v 80 H 0 Z"
         id="path3" />
    </g>
  </g>
  <path
     d="M 0,7.9449925e-4 V 800.00001 L 385.16076,400.0004 Z"
     fill="#cf142b"
     id="path4"
     style="stroke-width:1.62422" />
  <path
     d="m 153.8744,304.90248 -23.60373,72.67231 H 53.874402 l 61.775578,44.90651 -23.603733,72.61623 61.828153,-44.90652 61.82816,44.90652 -23.60374,-72.61623 61.77558,-44.90651 h -76.39626 z"
     fill="#ffffff"
     id="path5"
     style="stroke-width:1.75245" />
</svg>
